IMB-X-Files/The-Ambassadors-Assets/66156a7864623a257850dea5_﹟33.svg

<svg fill="none" height="105" viewBox="0 0 104 105" width="104" xmlns="http://www.w3.org/2000/svg"><path d="m20.5584 26.1314v6.5332m0-6.5332-13.33623 6.0918v6.0919m13.33623-12.1837 8.4786 4.2525m67.7407 40.421v-6.445l-20.8433-10.4541m20.8433 16.8991-12.2763 6.1802-8.567-4.2869m20.8433-1.8933-20.8433-10.43-12.5413-6.2757-42.8347-21.4346m0 0-13.33623 5.6505m0 0 21.81483 10.916m5.9555-15.8601v-4.4144m0 4.4144 12.2382 6.1381m-12.2382-6.1381-5.9555-2.9871m5.9555-1.4273 23.6314-12.0072v12.0072m-23.6314 0 12.2382 6.2684m11.3932 9.9985-11.3932-5.7144m11.3932 5.7144v-16.2669m0 16.2669 4.7692 2.392m-28.4006-4.4446v36.2862l12.2382-5.4672m-12.2382-30.819-5.9555 3.0018v3.0584m5.9555-6.0602 12.2382 6.0918v9.0724m16.1624-.3319-5.4758 2.6486v3.0308m5.4758-5.6794v15.6269m0-15.6269 12.5413 6.2684v8.4266m-12.5413.9319 12.5413 5.827m-12.5413-5.827-34.3561 15.4504m46.8974-9.6234-34.9743 15.8918-11.9231-6.2684m46.8974-9.6234v-6.7589m-46.8974 16.3823c0-.5266 0-25.118 0-39.8494m0 39.8494v-39.8494m18.1937 24.7588 10.6866-4.7741v-5.5332m-10.6866 10.3073v-15.6548m16.1624-51.09731 12.5413 7.06301v39.605m-12.5413-46.66801-34.3561 17.48101v5.6651m34.3561-23.14611v40.37771m-16.1624-12.3905v4.2841m0-4.2841 11.3932-6.2684m-11.3932 29.3785 10.6866 5.3475m5.4758-16.0671 12.5413 6.2903" stroke="#dcff93" stroke-linecap="round" stroke-linejoin="round"/></svg>

<svg width="104" height="105" viewBox="0 0 104 105" fill="none" xmlns="http://www.w3.org/2000/svg">
<path d="M20.5584 26.1314V32.6646M20.5584 26.1314L7.22217 32.2232V38.3151M20.5584 26.1314L29.037 30.3839M96.7777 70.8049V64.3599L75.9344 53.9058M96.7777 70.8049L84.5014 76.9851L75.9344 72.6982M96.7777 70.8049L75.9344 60.3749L63.3931 54.0992L20.5584 32.6646M20.5584 32.6646L7.22217 38.3151M7.22217 38.3151L29.037 49.2311M34.9925 33.371V28.9566M34.9925 33.371L47.2307 39.5091M34.9925 33.371L29.037 30.3839M34.9925 28.9566L58.6239 16.9494V28.9566M34.9925 28.9566L47.2307 35.225M58.6239 45.2235L47.2307 39.5091M58.6239 45.2235V28.9566M58.6239 45.2235L63.3931 47.6155M34.9925 43.1709V79.4571L47.2307 73.9899M34.9925 43.1709L29.037 46.1727C29.037 47.1306 29.037 48.1545 29.037 49.2311M34.9925 43.1709L47.2307 49.2627V58.3351M63.3931 58.0032L57.9173 60.6518V63.6826M63.3931 58.0032V73.6301M63.3931 58.0032L75.9344 64.2716V72.6982M63.3931 73.6301L75.9344 79.4571M63.3931 73.6301L29.037 89.0805M75.9344 79.4571L40.9601 95.3489L29.037 89.0805M75.9344 79.4571V72.6982M29.037 89.0805C29.037 88.5539 29.037 63.9625 29.037 49.2311M29.037 89.0805V49.2311M47.2307 73.9899L57.9173 69.2158V63.6826M47.2307 73.9899V58.3351M63.3931 7.23779L75.9344 14.3008V53.9058M63.3931 7.23779L29.037 24.7188V30.3839M63.3931 7.23779V47.6155M47.2307 35.225V39.5091M47.2307 35.225L58.6239 28.9566M47.2307 58.3351L57.9173 63.6826M63.3931 47.6155L75.9344 53.9058" stroke="#DCFF93" stroke-linecap="round" stroke-linejoin="round"/>
</svg>
